src/pos-icons/radio.svg

<svg height="24" viewBox="0 0 24 24" width="24" xmlns="http://www.w3.org/2000/svg"><path d="m20 6a2 2 0 0 1 2 2v12a2 2 0 0 1 -2 2h-16a2 2 0 0 1 -2-2v-12c0-.85.53-1.58 1.28-1.87l12.43-5.13.76 1.83-7.64 3.17zm0 2h-16v4h12v-2h2v2h2zm-13 6a3 3 0 0 0 -3 3 3 3 0 0 0 3 3 3 3 0 0 0 3-3 3 3 0 0 0 -3-3z"/></svg>

<?xml version="1.0" encoding="UTF-8"?><!DOCTYPE svg PUBLIC "-//W3C//DTD SVG 1.1//EN" "http://www.w3.org/Graphics/SVG/1.1/DTD/svg11.dtd"><svg xmlns="http://www.w3.org/2000/svg" xmlns:xlink="http://www.w3.org/1999/xlink" version="1.1" id="mdi-radio" width="24" height="24" viewBox="0 0 24 24"><path d="M20,6A2,2 0 0,1 22,8V20A2,2 0 0,1 20,22H4A2,2 0 0,1 2,20V8C2,7.15 2.53,6.42 3.28,6.13L15.71,1L16.47,2.83L8.83,6H20M20,8H4V12H16V10H18V12H20V8M7,14A3,3 0 0,0 4,17A3,3 0 0,0 7,20A3,3 0 0,0 10,17A3,3 0 0,0 7,14Z" /></svg>
